static/img/kroki/3b64fceb4242043e152754996dedbbd0.svg

<?xml version="1.0" encoding="us-ascii" standalone="no"?><svg xmlns="http://www.w3.org/2000/svg" xmlns:xlink="http://www.w3.org/1999/xlink" contentStyleType="text/css" height="252px" preserveAspectRatio="none" style="width:665px;height:252px;" version="1.1" viewBox="0 0 665 252" width="665px" zoomAndPan="magnify"><defs/><g><!--class aws_ec2_security_group--><g id="elem_aws_ec2_security_group"><rect codeLine="22" fill="#3D176E" height="39.7891" id="aws_ec2_security_group" rx="2.5" ry="2.5" style="stroke:#000D19;stroke-width:0.5;" width="245" x="7" y="7"/><ellipse cx="22" cy="26.8945" fill="#ADD1B2" rx="11" ry="11" style="stroke:#181818;stroke-width:1.0;"/><path d="M24.9688,32.5352 Q24.3906,32.832 23.75,32.9727 Q23.1094,33.1289 22.4063,33.1289 Q19.9063,33.1289 18.5781,31.4883 Q17.2656,29.832 17.2656,26.707 Q17.2656,23.582 18.5781,21.9258 Q19.9063,20.2695 22.4063,20.2695 Q23.1094,20.2695 23.75,20.4258 Q24.4063,20.582 24.9688,20.8789 L24.9688,23.5977 Q24.3438,23.0195 23.75,22.7539 Q23.1563,22.4727 22.5313,22.4727 Q21.1875,22.4727 20.5,23.5508 Q19.8125,24.6133 19.8125,26.707 Q19.8125,28.8008 20.5,29.8789 Q21.1875,30.9414 22.5313,30.9414 Q23.1563,30.9414 23.75,30.6758 Q24.3438,30.3945 24.9688,29.8164 L24.9688,32.5352 Z " fill="#000000"/><text fill="#D9B8FF" font-family="Helvetica" font-size="17" lengthAdjust="spacing" textLength="203" x="41" y="32.7798">aws_ec2_security_group</text></g><!--class aws_ec2_subnet--><g id="elem_aws_ec2_subnet"><rect codeLine="24" fill="#3D176E" height="39.7891" id="aws_ec2_subnet" rx="2.5" ry="2.5" style="stroke:#000D19;stroke-width:0.5;" width="179" x="287" y="7"/><ellipse cx="302" cy="26.8945" fill="#ADD1B2" rx="11" ry="11" style="stroke:#181818;stroke-width:1.0;"/><path d="M304.9688,32.5352 Q304.3906,32.832 303.75,32.9727 Q303.1094,33.1289 302.4063,33.1289 Q299.9063,33.1289 298.5781,31.4883 Q297.2656,29.832 297.2656,26.707 Q297.2656,23.582 298.5781,21.9258 Q299.9063,20.2695 302.4063,20.2695 Q303.1094,20.2695 303.75,20.4258 Q304.4063,20.582 304.9688,20.8789 L304.9688,23.5977 Q304.3438,23.0195 303.75,22.7539 Q303.1563,22.4727 302.5313,22.4727 Q301.1875,22.4727 300.5,23.5508 Q299.8125,24.6133 299.8125,26.707 Q299.8125,28.8008 300.5,29.8789 Q301.1875,30.9414 302.5313,30.9414 Q303.1563,30.9414 303.75,30.6758 Q304.3438,30.3945 304.9688,29.8164 L304.9688,32.5352 Z " fill="#000000"/><text fill="#D9B8FF" font-family="Helvetica" font-size="17" lengthAdjust="spacing" textLength="137" x="321" y="32.7798">aws_ec2_subnet</text></g><!--class aws_iam_role--><g id="elem_aws_iam_role"><rect codeLine="26" fill="#3D176E" height="39.7891" id="aws_iam_role" rx="2.5" ry="2.5" style="stroke:#000D19;stroke-width:0.5;" width="157" x="501" y="7"/><ellipse cx="516" cy="26.8945" fill="#ADD1B2" rx="11" ry="11" style="stroke:#181818;stroke-width:1.0;"/><path d="M518.9688,32.5352 Q518.3906,32.832 517.75,32.9727 Q517.1094,33.1289 516.4063,33.1289 Q513.9063,33.1289 512.5781,31.4883 Q511.2656,29.832 511.2656,26.707 Q511.2656,23.582 512.5781,21.9258 Q513.9063,20.2695 516.4063,20.2695 Q517.1094,20.2695 517.75,20.4258 Q518.4063,20.582 518.9688,20.8789 L518.9688,23.5977 Q518.3438,23.0195 517.75,22.7539 Q517.1563,22.4727 516.5313,22.4727 Q515.1875,22.4727 514.5,23.5508 Q513.8125,24.6133 513.8125,26.707 Q513.8125,28.8008 514.5,29.8789 Q515.1875,30.9414 516.5313,30.9414 Q517.1563,30.9414 517.75,30.6758 Q518.3438,30.3945 518.9688,29.8164 L518.9688,32.5352 Z " fill="#000000"/><text fill="#D9B8FF" font-family="Helvetica" font-size="17" lengthAdjust="spacing" textLength="115" x="535" y="32.7798">aws_iam_role</text></g><!--class aws_kms_key--><g id="elem_aws_kms_key"><rect codeLine="28" fill="#3D176E" height="39.7891" id="aws_kms_key" rx="2.5" ry="2.5" style="stroke:#000D19;stroke-width:0.5;" width="158" x="198.5" y="206.58"/><ellipse cx="213.5" cy="226.4745" fill="#ADD1B2" rx="11" ry="11" style="stroke:#181818;stroke-width:1.0;"/><path d="M216.4688,232.1152 Q215.8906,232.412 215.25,232.5527 Q214.6094,232.7089 213.9063,232.7089 Q211.4063,232.7089 210.0781,231.0683 Q208.7656,229.412 208.7656,226.287 Q208.7656,223.162 210.0781,221.5058 Q211.4063,219.8495 213.9063,219.8495 Q214.6094,219.8495 215.25,220.0058 Q215.9063,220.162 216.4688,220.4589 L216.4688,223.1777 Q215.8438,222.5995 215.25,222.3339 Q214.6563,222.0527 214.0313,222.0527 Q212.6875,222.0527 212,223.1308 Q211.3125,224.1933 211.3125,226.287 Q211.3125,228.3808 212,229.4589 Q212.6875,230.5214 214.0313,230.5214 Q214.6563,230.5214 215.25,230.2558 Q215.8438,229.9745 216.4688,229.3964 L216.4688,232.1152 Z " fill="#000000"/><text fill="#D9B8FF" font-family="Helvetica" font-size="17" lengthAdjust="spacing" textLength="116" x="232.5" y="232.3598">aws_kms_key</text></g><!--class aws_s3_bucket--><g id="elem_aws_s3_bucket"><rect codeLine="30" fill="#3D176E" height="39.7891" id="aws_s3_bucket" rx="2.5" ry="2.5" style="stroke:#000D19;stroke-width:0.5;" width="168" x="391.5" y="206.58"/><ellipse cx="406.5" cy="226.4745" fill="#ADD1B2" rx="11" ry="11" style="stroke:#181818;stroke-width:1.0;"/><path d="M409.4688,232.1152 Q408.8906,232.412 408.25,232.5527 Q407.6094,232.7089 406.9063,232.7089 Q404.4063,232.7089 403.0781,231.0683 Q401.7656,229.412 401.7656,226.287 Q401.7656,223.162 403.0781,221.5058 Q404.4063,219.8495 406.9063,219.8495 Q407.6094,219.8495 408.25,220.0058 Q408.9063,220.162 409.4688,220.4589 L409.4688,223.1777 Q408.8438,222.5995 408.25,222.3339 Q407.6563,222.0527 407.0313,222.0527 Q405.6875,222.0527 405,223.1308 Q404.3125,224.1933 404.3125,226.287 Q404.3125,228.3808 405,229.4589 Q405.6875,230.5214 407.0313,230.5214 Q407.6563,230.5214 408.25,230.2558 Q408.8438,229.9745 409.4688,229.3964 L409.4688,232.1152 Z " fill="#000000"/><text fill="#D9B8FF" font-family="Helvetica" font-size="17" lengthAdjust="spacing" textLength="126" x="425.5" y="232.3598">aws_s3_bucket</text></g><!--class aws_sagemaker_compilation_job--><g id="elem_aws_sagemaker_compilation_job"><rect codeLine="32" fill="#3D176E" height="39.7891" id="aws_sagemaker_compilation_job" rx="2.5" ry="2.5" style="stroke:#000D19;stroke-width:0.5;" width="317" x="218" y="106.79"/><ellipse cx="233" cy="126.6845" fill="#ADD1B2" rx="11" ry="11" style="stroke:#181818;stroke-width:1.0;"/><path d="M235.9688,132.3252 Q235.3906,132.622 234.75,132.7627 Q234.1094,132.9189 233.4063,132.9189 Q230.9063,132.9189 229.5781,131.2783 Q228.2656,129.622 228.2656,126.497 Q228.2656,123.372 229.5781,121.7158 Q230.9063,120.0595 233.4063,120.0595 Q234.1094,120.0595 234.75,120.2158 Q235.4063,120.372 235.9688,120.6689 L235.9688,123.3877 Q235.3438,122.8095 234.75,122.5439 Q234.1563,122.2627 233.5313,122.2627 Q232.1875,122.2627 231.5,123.3408 Q230.8125,124.4033 230.8125,126.497 Q230.8125,128.5908 231.5,129.6689 Q232.1875,130.7314 233.5313,130.7314 Q234.1563,130.7314 234.75,130.4658 Q235.3438,130.1845 235.9688,129.6064 L235.9688,132.3252 Z " fill="#000000"/><text fill="#D9B8FF" font-family="Helvetica" font-size="17" lengthAdjust="spacing" textLength="275" x="252" y="132.5698">aws_sagemaker_compilation_job</text></g><!--link aws_ec2_security_group to aws_sagemaker_compilation_job--><g id="link_aws_ec2_security_group_aws_sagemaker_compilation_job"><path codeLine="34" d="M178.3,47.22 C221.6,64.36 278.9517,87.0603 322.2217,104.2003 " fill="none" id="aws_ec2_security_group-to-aws_sagemaker_compilation_job" style="stroke:#1A83AF;stroke-width:2.0;"/><polygon fill="#1A83AF" points="327.8,106.41,320.9057,99.3766,323.1514,104.5686,317.9594,106.8144,327.8,106.41" style="stroke:#1A83AF;stroke-width:2.0;"/></g><!--link aws_ec2_subnet to aws_sagemaker_compilation_job--><g id="link_aws_ec2_subnet_aws_sagemaker_compilation_job"><path codeLine="35" d="M376.5,47.22 C376.5,64.36 376.5,83.27 376.5,100.41 " fill="none" id="aws_ec2_subnet-to-aws_sagemaker_compilation_job" style="stroke:#1A83AF;stroke-width:2.0;"/><polygon fill="#1A83AF" points="376.5,106.41,380.5,97.41,376.5,101.41,372.5,97.41,376.5,106.41" style="stroke:#1A83AF;stroke-width:2.0;"/></g><!--link aws_iam_role to aws_sagemaker_compilation_job--><g id="link_aws_iam_role_aws_sagemaker_compilation_job"><path codeLine="36" d="M539.39,47.22 C503.81,64.36 457.4952,86.6654 421.9252,103.8054 " fill="none" id="aws_iam_role-to-aws_sagemaker_compilation_job" style="stroke:#1A83AF;stroke-width:2.0;"/><polygon fill="#1A83AF" points="416.52,106.41,426.3642,106.1066,421.0243,104.2395,422.8914,98.8997,416.52,106.41" style="stroke:#1A83AF;stroke-width:2.0;"/></g><!--link aws_sagemaker_compilation_job to aws_kms_key--><g id="link_aws_sagemaker_compilation_job_aws_kms_key"><path codeLine="37" d="M356.94,147.01 C339.58,164.15 318.6272,184.842 301.2872,201.982 " fill="none" id="aws_sagemaker_compilation_job-to-aws_kms_key" style="stroke:#1A83AF;stroke-width:2.0;"/><polygon fill="#1A83AF" points="297.02,206.2,306.2327,202.7178,300.576,202.685,300.6088,197.0283,297.02,206.2" style="stroke:#1A83AF;stroke-width:2.0;"/></g><!--link aws_sagemaker_compilation_job to aws_s3_bucket--><g id="link_aws_sagemaker_compilation_job_aws_s3_bucket"><path codeLine="38" d="M396.06,147.01 C413.42,164.15 434.3728,184.842 451.7128,201.982 " fill="none" id="aws_sagemaker_compilation_job-to-aws_s3_bucket" style="stroke:#1A83AF;stroke-width:2.0;"/><polygon fill="#1A83AF" points="455.98,206.2,452.3912,197.0283,452.424,202.685,446.7673,202.7178,455.98,206.2" style="stroke:#1A83AF;stroke-width:2.0;"/></g><!--SRC=[bP11Jy9048Nl_8fDE9DG6WKk9fM4w8KOyMPCCzsTmjhkRZExbLJZVvS2ahgr9HpsCk-Rj-_DLWfag0fNCOKgGR83cqbT085Y4P7PBKnkY0tJ5D9mwejBezr5O0KAsGFc7-Wa1vzusKgUQRIMJHhIFV1iGwRKucZl2BJTIwXTWrhaO6ta7CcaTDW88-R9B4rzqZSTXYAOtc8BCoIGJiXuF1R1t4SkVjNR-qoivIUoe7cqbN7OYjdwua3rfgo9HiXMqL-zC-CJ227rXjqqPi_7JAIH_ipNMn1cLzCfvBRvZNL8Q5nLuABL2kSpaKx_XH-xO5vVZi7EniWdiKLUadHLNAC5-nfy-q2PQ7IU8475P7BqnfdQFwoygGtZfEHPoyJ21XLaI34tgf0vE6bq_6wI0zSHSFGw3A9P62tVHdVzBWElmPMRvufNxdMtQXcTpdNjslcUFm00]--></g></svg>

<svg xmlns="http://www.w3.org/2000/svg" width="665" height="252" viewBox="0 0 665 252"><rect width="245" height="39.789" x="7" y="7" fill="#3D176E" rx="2.5" ry="2.5" style="stroke:#000d19;stroke-width:.5"/><circle cx="22" cy="26.895" r="11" fill="#ADD1B2" style="stroke:#181818;stroke-width:1"/><path d="M24.969 32.535q-.578.297-1.219.438-.64.156-1.344.156-2.5 0-3.828-1.64-1.312-1.657-1.312-4.782t1.312-4.781q1.328-1.656 3.828-1.656.703 0 1.344.156.656.156 1.219.453v2.719q-.625-.578-1.219-.844-.594-.281-1.219-.281-1.343 0-2.031 1.078-.687 1.062-.687 3.156t.687 3.172q.688 1.062 2.031 1.062.625 0 1.219-.265.594-.281 1.219-.86z"/><text x="41" y="32.78" fill="#D9B8FF" font-family="Helvetica" font-size="17" textLength="203">aws_ec2_security_group</text><rect width="179" height="39.789" x="287" y="7" fill="#3D176E" rx="2.5" ry="2.5" style="stroke:#000d19;stroke-width:.5"/><circle cx="302" cy="26.895" r="11" fill="#ADD1B2" style="stroke:#181818;stroke-width:1"/><path d="M304.969 32.535q-.578.297-1.219.438-.64.156-1.344.156-2.5 0-3.828-1.64-1.312-1.657-1.312-4.782t1.312-4.781q1.328-1.656 3.828-1.656.703 0 1.344.156.656.156 1.219.453v2.719q-.625-.578-1.219-.844-.594-.281-1.219-.281-1.344 0-2.031 1.078-.687 1.062-.687 3.156t.687 3.172q.688 1.062 2.031 1.062.625 0 1.219-.265.594-.281 1.219-.86z"/><text x="321" y="32.78" fill="#D9B8FF" font-family="Helvetica" font-size="17" textLength="137">aws_ec2_subnet</text><rect width="157" height="39.789" x="501" y="7" fill="#3D176E" rx="2.5" ry="2.5" style="stroke:#000d19;stroke-width:.5"/><circle cx="516" cy="26.895" r="11" fill="#ADD1B2" style="stroke:#181818;stroke-width:1"/><path d="M518.969 32.535q-.578.297-1.219.438-.64.156-1.344.156-2.5 0-3.828-1.64-1.312-1.657-1.312-4.782t1.312-4.781q1.328-1.656 3.828-1.656.703 0 1.344.156.656.156 1.219.453v2.719q-.625-.578-1.219-.844-.594-.281-1.219-.281-1.343 0-2.031 1.078-.687 1.062-.687 3.156t.687 3.172q.688 1.062 2.031 1.062.625 0 1.219-.265.594-.281 1.219-.86z"/><text x="535" y="32.78" fill="#D9B8FF" font-family="Helvetica" font-size="17" textLength="115">aws_iam_role</text><rect width="158" height="39.789" x="198.5" y="206.58" fill="#3D176E" rx="2.5" ry="2.5" style="stroke:#000d19;stroke-width:.5"/><circle cx="213.5" cy="226.475" r="11" fill="#ADD1B2" style="stroke:#181818;stroke-width:1"/><path d="M216.469 232.115q-.578.297-1.219.438-.64.156-1.344.156-2.5 0-3.828-1.64-1.312-1.657-1.312-4.782t1.312-4.781q1.328-1.656 3.828-1.656.703 0 1.344.156.656.156 1.219.453v2.719q-.625-.578-1.219-.844-.594-.281-1.219-.281-1.344 0-2.031 1.078-.687 1.062-.687 3.156t.687 3.172q.688 1.062 2.031 1.062.625 0 1.219-.265.594-.281 1.219-.86z"/><text x="232.5" y="232.36" fill="#D9B8FF" font-family="Helvetica" font-size="17" textLength="116">aws_kms_key</text><rect width="168" height="39.789" x="391.5" y="206.58" fill="#3D176E" rx="2.5" ry="2.5" style="stroke:#000d19;stroke-width:.5"/><circle cx="406.5" cy="226.475" r="11" fill="#ADD1B2" style="stroke:#181818;stroke-width:1"/><path d="M409.469 232.115q-.578.297-1.219.438-.64.156-1.344.156-2.5 0-3.828-1.64-1.312-1.657-1.312-4.782t1.312-4.781q1.328-1.656 3.828-1.656.703 0 1.344.156.656.156 1.219.453v2.719q-.625-.578-1.219-.844-.594-.281-1.219-.281-1.344 0-2.031 1.078-.687 1.062-.687 3.156t.687 3.172q.688 1.062 2.031 1.062.625 0 1.219-.265.594-.281 1.219-.86z"/><text x="425.5" y="232.36" fill="#D9B8FF" font-family="Helvetica" font-size="17" textLength="126">aws_s3_bucket</text><rect width="317" height="39.789" x="218" y="106.79" fill="#3D176E" rx="2.5" ry="2.5" style="stroke:#000d19;stroke-width:.5"/><circle cx="233" cy="126.684" r="11" fill="#ADD1B2" style="stroke:#181818;stroke-width:1"/><path d="M235.969 132.325q-.578.297-1.219.438-.64.156-1.344.156-2.5 0-3.828-1.64-1.312-1.657-1.312-4.782t1.312-4.781q1.328-1.656 3.828-1.656.703 0 1.344.156.656.156 1.219.453v2.719q-.625-.579-1.219-.844-.594-.281-1.219-.281-1.344 0-2.031 1.078-.687 1.062-.687 3.156t.687 3.172q.688 1.062 2.031 1.062.625 0 1.219-.265.594-.281 1.219-.86z"/><text x="252" y="132.57" fill="#D9B8FF" font-family="Helvetica" font-size="17" textLength="275">aws_sagemaker_compilation_job</text><path fill="none" d="M178.3 47.22c43.3 17.14 100.652 39.84 143.922 56.98" style="stroke:#1a83af;stroke-width:2"/><path fill="#1A83AF" d="m327.8 106.41-6.894-7.033 2.245 5.192-5.192 2.245z" style="stroke:#1a83af;stroke-width:2"/><path fill="none" d="M376.5 47.22v53.19" style="stroke:#1a83af;stroke-width:2"/><path fill="#1A83AF" d="m376.5 106.41 4-9-4 4-4-4z" style="stroke:#1a83af;stroke-width:2"/><path fill="none" d="M539.39 47.22c-35.58 17.14-81.895 39.445-117.465 56.585" style="stroke:#1a83af;stroke-width:2"/><path fill="#1A83AF" d="m416.52 106.41 9.844-.303-5.34-1.867 1.867-5.34z" style="stroke:#1a83af;stroke-width:2"/><path fill="none" d="M356.94 147.01a145126 145126 0 0 0-55.653 54.972" style="stroke:#1a83af;stroke-width:2"/><path fill="#1A83AF" d="m297.02 206.2 9.213-3.482-5.657-.033.033-5.657z" style="stroke:#1a83af;stroke-width:2"/><path fill="none" d="M396.06 147.01c17.36 17.14 38.313 37.832 55.653 54.972" style="stroke:#1a83af;stroke-width:2"/><path fill="#1A83AF" d="m455.98 206.2-3.589-9.172.033 5.657-5.657.033z" style="stroke:#1a83af;stroke-width:2"/></svg>
